X:1596
L:1/8
M:4/4
K:G
 (3def | gdBA Bdeg | fdAF G2 AB | cded cBAG | FdEd D2 (3def | gdBA Bdeg | fdAF G2 AB | cedc BAGF | 
 A2 G2 G2 :: Gd | BdGd BdGe | ceAe ceAd | BdGd BdGd | cBcd ef (3gfe | dgfe dcBA | G2 g2 G2 :: 
 G2 Bd gdBG | G2 ce gecG | G2 Bd gdBG | Ad^cd Adcd :| Bdgd Bdgd | cege cege | Bdgd Bdgd | 
 Adfd Adfd | Bdgd Bdgd | cege cege | Bdgd Adfd | gdBd G2 B2 | B,dgd B,dgd | Cege Cege | 
 B,dgd B,dgd | A,dfd A,dfd | B,dgd B,dgd | Cege Cege | B,dgd A,dfd | gdBd G,4 ||

